X:1
T:Title
%%score { ( 1 3 ) | ( 2 4 ) }
L:1/8
M:3/4
K:Bb
V:1 treble nm="Grand Piano"
V:3 treble 
V:2 bass 
V:4 bass 
V:1
 z2 z2[Q:1/4=100] [B,D]>[CE] | [DF]2 [DF]2 [DB]>[FA] | [EG]2 [EG]2 [Ge]>[CGc] | %3
 [DFB]2 [CFA]2 [EFc]2 | [DFB]4[K:bass] [F,B,D]>[CE] | [DF]2 [DF]2 [DB]>[FA] | %6
 [EG]2 [EG]2 [FB]>[FB] | cd .[=Ec]2 [CA]G |[M:2/4] F4 |[M:1/4] F>F |[M:3/4] e2 e2 e>d | c2 c2 F>F | %12
 [Fd]2 [Fd]2 .[Fd]2 | [B,GB]4 [B,EG]>[B,EG] | [DF]2 [DB]2 [Fd]>[Fd] | [_Af]2 [Ge]2 [Gd]>[Gc] | %16
 B2 A2 dc |[M:2/4] [B,DB]4 |] %18
V:2
 z2 z2 [B,,F,]>[B,,B,] | [B,,B,]2 [B,,B,]2 [B,,B,]>[B,,B,] | [E,B,]2 [E,B,]2 [E,B,]>E, | %3
 F,2 F,2 F,2 | B,,4 B,,>[B,,B,] | [B,,B,]2 [B,,B,]2 [B,,B,]>[B,,B,] | %6
 [E,B,]2 [E,B,]2 [D,F,]>[D,F,] | [C,G,]2 z[K:treble] B[K:bass] z B, |[M:2/4] [F,A,]4 | %9
[M:1/4] F,>F, |[M:3/4] [F,CF]2 [F,CF]2 [F,CF]>[F,B,F] | [F,A,F]2 [F,A,F]2 F,>F, | %12
 [B,,B,]2 [B,,B,]2 z[K:treble] c | E,4 E,>E, | [B,,B,]2 [B,,B,]2 [B,,B,]>[B,,B,] | %15
 [E,B,]2 [E,B,]2 [E,E]>[E,E] | [F,DF]2 [F,CF]2 FE |[M:2/4] B,,4 |] %18
V:3
 x6 | x6 | x6 | x6 | x4[K:bass] x2 | x6 | x6 | =E2 z2 E2 |[M:2/4] x4 |[M:1/4] x2 |[M:3/4] x6 | x6 | %12
 x6 | x6 | x6 | x6 | x6 |[M:2/4] x4 |] %18
V:4
 x6 | x6 | x6 | x6 | x6 | x6 | x6 | z2 [C,G,]2[K:treble][K:bass] C,2 |[M:2/4] x4 |[M:1/4] x2 | %10
[M:3/4] x6 | x6 | z2 z2 [D,B,]2[K:treble] | x6 | x6 | x6 | z2 z2 [F,A,]2 |[M:2/4] x4 |] %18

